!!!OTL: NOCH NICHT ENTBLUEHT ZUR ROSE
!!!ARE: Europa, Mitteleuropa, Deutschland
!!!SCT: F0868
!!!YEM: Copyright 1995, estate of Helmut Schaffrath.
**kern
*ICvox
*Ivox
*M4/4
*k[b-]
*F:
{8.a
16b-
=1
4cc
4cc
8cc
8ff
8ee
8dd
=2
4.cc
8b-
8g
8r}
{8g
8f
=3
8e
8g
8b-
8a
8g
8b-
8dd
8cc
=4
4b-
4a
4r}
{4cc
=5
4e
4cc
4a
4cc
=6
2g
4r}
{8.g
16a
=7
4b-
4b-
4b-
4b-
=8
4.b-
8a
4g
8r}
{8g
=9
8a
8b-
8cc
8dd
4.ee-
8e-
=10
4d
4d
4r}
{12dd
12b-
12g
=11
2cc
16cc
16bn
16dd
16cc
16b-
16a
16b-
16g
=12
4f
2r}
==
!!!AGN: Liebes - Lied
!!!ONB: ESAC (Essen Associative Code) Database: FINK
!!!AMT: simple quadruple
!!!AIN: vox
!!!EED: Helmut Schaffrath
!!!EEV: 1.0
*-
